X: 702
T: Aggie Whyte's
R: reel
M: 4/4
K: Gmajor
|:BGAF DG G2|ABcA defg|afge f3e|dfed cAdc|
BDAD DG G2|ABcA defg|afge f3e|1 dcAF G3 A:|2 dcAF G3 B||
|:defg a2 fa|gfde d^cA^c|defg ad d2|adfa gagf|
defg a3g|fge^c d^cAG|FDFG Adfe|1 d=cAF G3 A:|2 dcAF G4||

